X:50
T:I'll Buy Boots For Maggie
M:2/4
L:1/8
Q:120
R:Polka (Key of Am)
K:Amin
"Am"EA AB |cB A2 | "F"FA AB | cB A2 | "D"^FA AB | cB A2 | "Em"eg/e/ "G"dB | "Am"BA AG :|:
"Am"A>B cd | eg ga | "G"eg/e/ dB | AB G2 | "F"A>B cd | eg ga| "G"eg/e/ dB| "Am"BA AG :|]
